Numix-GalliumOS/24/status/spotify-indicator.svg

<?xml version="1.0" encoding="UTF-8" standalone="no"?>
<svg
   xmlns:dc="http://purl.org/dc/elements/1.1/"
   xmlns:cc="http://creativecommons.org/ns#"
   xmlns:rdf="http://www.w3.org/1999/02/22-rdf-syntax-ns#"
   xmlns:svg="http://www.w3.org/2000/svg"
   xmlns="http://www.w3.org/2000/svg"
   xmlns:sodipodi="http://sodipodi.sourceforge.net/DTD/sodipodi-0.dtd"
   xmlns:inkscape="http://www.inkscape.org/namespaces/inkscape"
   width="24"
   viewBox="0 0 6.7733335 6.7733335"
   height="24"
   id="svg2"
   version="1.1"
   inkscape:version="0.91 r"
   sodipodi:docname="spotify-indicator.svg">
  <metadata
     id="metadata53">
    <rdf:RDF>
      <cc:Work
         rdf:about="">
        <dc:format>image/svg+xml</dc:format>
        <dc:type
           rdf:resource="http://purl.org/dc/dcmitype/StillImage" />
        <dc:title />
      </cc:Work>
    </rdf:RDF>
  </metadata>
  <sodipodi:namedview
     pagecolor="#ffffff"
     bordercolor="#666666"
     borderopacity="1"
     objecttolerance="10"
     gridtolerance="10"
     guidetolerance="10"
     inkscape:pageopacity="0"
     inkscape:pageshadow="2"
     inkscape:window-width="1366"
     inkscape:window-height="747"
     id="namedview51"
     showgrid="true"
     inkscape:zoom="9.8429264"
     inkscape:cx="-8.5265274"
     inkscape:cy="0.023789884"
     inkscape:window-x="0"
     inkscape:window-y="21"
     inkscape:window-maximized="1"
     inkscape:current-layer="svg2">
    <inkscape:grid
       type="xygrid"
       id="grid9949" />
  </sodipodi:namedview>
  <defs
     id="defs4" />
  <path
     style="fill:#ececec;fill-opacity:1;fill-rule:evenodd"
     d="m 3.3866666,1.1288888 c -1.2508089,0 -2.2577778,1.0069689 -2.2577778,2.2577778 0,1.250809 1.0069689,2.2577779 2.2577778,2.2577779 1.250809,0 2.2577779,-1.0069689 2.2577779,-2.2577779 0,-1.2508089 -1.0069689,-2.2577778 -2.2577779,-2.2577778 z M 2.7869444,2.5135416 c 0.6700263,-0.019868 1.4709733,0.1293469 2.0108334,0.4938889 0.086324,0.058547 0.1110911,0.1780419 0.052917,0.2645833 C 4.792531,3.3583617 4.6808966,3.3830706 4.5949306,3.3249305 3.969236,2.9024971 2.8956502,2.8111954 2.2665972,2.9633333 2.1650557,2.9876617 2.0614493,2.923368 2.0372916,2.8222222 2.0127383,2.7212446 2.0772452,2.6260864 2.1784027,2.6017361 2.3590987,2.5580836 2.5636023,2.5201643 2.7869444,2.5135416 Z m 0.044097,0.7055556 c 0.5950618,-0.010931 1.2181707,0.1545437 1.6668753,0.4674305 0.07105,0.049764 0.084465,0.1405857 0.035278,0.2116667 C 4.4832383,3.9692303 4.3924166,4.00029 4.3215278,3.9511111 3.8006488,3.5871477 2.9696272,3.4328235 2.3195138,3.5895139 2.2351394,3.6100263 2.1548215,3.5592362 2.1343055,3.4748611 2.1139841,3.3904981 2.1647973,3.3097927 2.2489583,3.2896527 2.4347276,3.2448508 2.6326878,3.2227373 2.8310416,3.2190972 Z m 0.017639,0.6526389 c 0.5347194,-0.00651 0.9924263,0.130819 1.3758334,0.396875 0.057224,0.039142 0.065602,0.1103469 0.026458,0.1675694 -0.039707,0.056995 -0.1109444,0.074769 -0.1675694,0.035278 C 3.6280849,4.155587 3.0284862,4.0524091 2.3195138,4.1715972 2.2512745,4.1828409 2.1896427,4.1341937 2.1784027,4.0657639 2.1669657,3.9975138 2.215794,3.9360717 2.284236,3.9246528 2.4781579,3.8919748 2.6704407,3.8739061 2.8486805,3.8717361 Z"
     id="rect31"
     inkscape:connector-curvature="0" />
</svg>

<svg xmlns="http://www.w3.org/2000/svg" width="24" viewBox="0 0 6.7733335 6.7733335" height="24">
 <path d="m 3.387 1.129 c -1.251 0 -2.258 1.01 -2.258 2.258 0 1.251 1.01 2.258 2.258 2.258 1.251 0 2.258 -1.01 2.258 -2.258 0 -1.251 -1.01 -2.258 -2.258 -2.258 z m -0.6 1.385 c 0.67 -0.02 1.471 0.129 2.01 0.494 0.086 0.059 0.111 0.178 0.053 0.265 c -0.058 0.086 -0.17 0.111 -0.256 0.053 -0.626 -0.422 -1.699 -0.514 -2.328 -0.362 -0.102 0.024 -0.205 -0.04 -0.229 -0.141 -0.025 -0.101 0.04 -0.196 0.141 -0.22 0.181 -0.044 0.385 -0.082 0.609 -0.088 m 0.044 0.706 c 0.595 -0.011 1.218 0.155 1.667 0.467 0.071 0.05 0.084 0.141 0.035 0.212 c -0.05 0.071 -0.141 0.102 -0.212 0.053 -0.521 -0.364 -1.352 -0.518 -2 -0.362 -0.084 0.021 -0.165 -0.03 -0.185 -0.115 -0.02 -0.084 0.03 -0.165 0.115 -0.185 0.186 -0.045 0.384 -0.067 0.582 -0.071 m 0.018 0.653 c 0.535 -0.007 0.992 0.131 1.376 0.397 0.057 0.039 0.066 0.11 0.026 0.168 -0.04 0.057 -0.111 0.075 -0.168 0.035 c -0.455 -0.316 -1.055 -0.419 -1.764 -0.3 -0.068 0.011 -0.13 -0.037 -0.141 -0.106 -0.011 -0.068 0.037 -0.13 0.106 -0.141 0.194 -0.033 0.386 -0.051 0.564 -0.053" style="fill:#ececec;fill-opacity:1;fill-rule:evenodd"/>
</svg>
